X:182
T: Jesus im Garten
N: A0542A
O: Europa, Mitteleuropa, Deutschland
N: Andernacher Gsgb 1608 S. 195.
R: Romanze, Ballade, Lied, religioeses Lied
M: 6/2
L: 1/2
K: G
d | d2dd2d | G2GG2
A | B2cd2A | B2cd2
B | c2de2d | c2Bc2
B | A2Bc2A | d2cB2

@@@ Tune index: 495
